X:377
T:B377-  The Prince of Orange's Delight
Q:1/4=120
L:1/4
M:6/4
K:F
B|A3/2G/FAcA|(B/c/)dBc2c|f3/2e/dege|fFFF2:|f|\
f3/2g/agab|a3/2g/fefg|f3/2e/fdgf|eccc2c|\
defc2f|BBfA2f|Ggfe3/2d/e|fFFF2|]

